src/64x64/places/folder-gruvbox-original-purple-syncthing.svg

<svg xmlns="http://www.w3.org/2000/svg" width="64" height="64" version="1">
 <rect style="opacity:0.2" width="56" height="36" x="4" y="22" rx="2.8" ry="2.8"/>
 <path style="fill:#8f3f71" d="M 4,46.2 C 4,47.751 5.2488,49 6.8,49 H 57.2 C 58.751,49 60,47.751 60,46.2 V 15.8 C 60,14.249 58.751,13 57.2,13 H 32 C 27.8,13 26.4,7 22.2,7 H 6.8 C 5.2488,7 4,8.2488 4,9.8"/>
 <rect style="opacity:0.2" width="56" height="36" x="4" y="20" rx="2.8" ry="2.8"/>
 <rect style="fill:#E1D4B6" width="48" height="22" x="8" y="16" rx="2.8" ry="2.8"/>
 <rect style="fill:#d3869b" width="56" height="36" x="4" y="21" rx="2.8" ry="2.8"/>
 <path style="fill:#393534" d="M 32 27 C 25.372582 27.000002 20 32.372582 20 39 C 20 45.627416 25.372582 50.999998 32 51 C 38.627416 51 44 45.627416 44 39 C 44 32.372582 38.627416 27 32 27 z M 32 29 C 37.522848 29 42 33.47715 42 39 C 42 44.522848 37.522848 49 32 49 C 26.477152 48.999998 22 44.522848 22 39 C 22 33.47715 26.477152 29.000002 32 29 z"/>
 <path style="opacity:0.1;fill:#E1D4B6" d="M 6.8008,7 C 5.2496,7 4,8.2496 4,9.8008 V 10.801 C 4,9.2496 5.2496,8 6.8008,8 H 22.199 C 26.399,8 27.8,14 32,14 H 57.199 C 58.75,14 60,15.25 60,16.801 V 15.801 C 60,14.25 58.75,13 57.199,13 H 32 C 27.8,13 26.399,7 22.199,7 Z"/>
 <path fill="none" stroke-width="1.143" style="stroke:#393534;stroke-width:2" d="m 21,42 14,-2 8,-6"/>
 <path fill="none" stroke-width="1.143" style="stroke:#393534;stroke-width:2" d="M 41,46 35,40"/>
 <circle style="fill:#393534" cx="41" cy="46" r="3"/>
 <circle style="fill:#393534" cx="43" cy="34" r="3"/>
 <circle style="fill:#393534" cx="35" cy="40" r="3"/>
 <circle style="fill:#393534" cx="21" cy="42" r="3"/>
</svg>

<?xml version="1.0" encoding="UTF-8"?>
<svg width="64" height="64" version="1" xmlns="http://www.w3.org/2000/svg">
 <rect x="4" y="22" width="56" height="36" rx="2.8" ry="2.8" opacity=".2"/>
 <path d="m4 46.2c0 1.551 1.2488 2.8 2.8 2.8h50.4c1.551 0 2.8-1.249 2.8-2.8v-30.4c0-1.551-1.249-2.8-2.8-2.8h-25.2c-4.2 0-5.6-6-9.8-6h-15.4c-1.5512 0-2.8 1.2488-2.8 2.8" fill="#8f3f71"/>
 <rect x="4" y="20" width="56" height="36" rx="2.8" ry="2.8" opacity=".2"/>
 <rect x="8" y="16" width="48" height="22" rx="2.8" ry="2.8" fill="#E1D4B6"/>
 <rect x="4" y="21" width="56" height="36" rx="2.8" ry="2.8" fill="#d3869b"/>
 <path d="m32 27c-6.6274 2e-6 -12 5.3726-12 12 0 6.6274 5.3726 12 12 12 6.6274 0 12-5.3726 12-12 0-6.6274-5.3726-12-12-12zm0 2c5.5228 0 10 4.4772 10 10 0 5.5228-4.4772 10-10 10-5.5228-2e-6 -10-4.4772-10-10 0-5.5228 4.4772-10 10-10z" fill="#393534"/>
 <path d="m6.8008 7c-1.5512 0-2.8008 1.2496-2.8008 2.8008v1.0002c0-1.5514 1.2496-2.801 2.8008-2.801h15.398c4.2 0 5.601 6 9.801 6h25.199c1.551 0 2.801 1.25 2.801 2.801v-1c0-1.551-1.25-2.801-2.801-2.801h-25.199c-4.2 0-5.601-6-9.801-6z" fill="#E1D4B6" opacity=".1"/>
 <path d="m21 42 14-2 8-6" fill="none" stroke="#393534" stroke-width="2"/>
 <path d="m41 46-6-6" fill="none" stroke="#393534" stroke-width="2"/>
 <circle cx="41" cy="46" r="3" fill="#393534"/>
 <circle cx="43" cy="34" r="3" fill="#393534"/>
 <circle cx="35" cy="40" r="3" fill="#393534"/>
 <circle cx="21" cy="42" r="3" fill="#393534"/>
</svg>
